X: 1
T: Johnny Leary's
M: 2/4
L: 1/8
R: polka
K: Dmaj
|:e>e dB|BA B/c/d|e>e dB|BA A2|
e>e dB|BA B/c/d|af/a/ gc|1ed d2:|2ed de||
|:f>e fA|B/c/d ef|g>g ga|ba fa|
f>a fA|B/c/d ef|af/a/ gc|ed de:|
